package/converter/svg/duotone/square-f.svg

<svg xmlns="http://www.w3.org/2000/svg" viewBox="0 0 448 512"><!-- Font Awesome Pro 6.0.0-alpha2 by @fontawesome - https://fontawesome.com License - https://fontawesome.com/license (Commercial License) --><defs><style>.fa-secondary{opacity:.4}</style></defs><path d="M384 32H64C28.654 32 0 60.654 0 96V416C0 451.346 28.654 480 64 480H384C419.348 480 448 451.346 448 416V96C448 60.654 419.348 32 384 32ZM296 176H176V240H264C277.25 240 288 250.75 288 264S277.25 288 264 288H176V360C176 373.25 165.25 384 152 384S128 373.25 128 360V152C128 138.75 138.75 128 152 128H296C309.25 128 320 138.75 320 152S309.25 176 296 176Z" class="fa-secondary"/><path d="M296 128H152C138.75 128 128 138.75 128 152V360C128 373.25 138.75 384 152 384S176 373.25 176 360V288H264C277.25 288 288 277.25 288 264S277.25 240 264 240H176V176H296C309.25 176 320 165.25 320 152S309.25 128 296 128Z" class="fa-primary"/></svg>

<svg xmlns="http://www.w3.org/2000/svg" viewBox="0 0 448 512"><!--! Font Awesome Pro 6.6.0 by @fontawesome - https://fontawesome.com License - https://fontawesome.com/license (Commercial License) Copyright 2024 Fonticons, Inc. --><defs><style>.fa-secondary{opacity:.4}</style></defs><path class="fa-secondary" d="M0 96L0 416c0 35.3 28.7 64 64 64l320 0c35.3 0 64-28.7 64-64l0-320c0-35.3-28.7-64-64-64L64 32C28.7 32 0 60.7 0 96zm128 56c0-13.3 10.7-24 24-24l144 0c13.3 0 24 10.7 24 24s-10.7 24-24 24l-120 0 0 64 88 0c13.3 0 24 10.7 24 24s-10.7 24-24 24l-88 0 0 72c0 13.3-10.7 24-24 24s-24-10.7-24-24l0-96 0-112z"/><path class="fa-primary" d="M128 152c0-13.3 10.7-24 24-24l144 0c13.3 0 24 10.7 24 24s-10.7 24-24 24l-120 0 0 64 88 0c13.3 0 24 10.7 24 24s-10.7 24-24 24l-88 0 0 72c0 13.3-10.7 24-24 24s-24-10.7-24-24l0-96 0-112z"/></svg>
